X:1
T:The Old Chain Gang
M:4/4
L:1/8
K:C
 EE E| E4- E/2E/2 E/2F/2 ED| C4- CE EE| F4- F F/2G/2 AG| E4- EG GG|\
 A4- A A/2A/2 AF| E4- EE EF| G4- G F/2F/2 ED| C4- C||
